SVG/life-bouy.svg

<?xml version="1.0" encoding="utf-8"?>
<!-- Generated by IcoMoon.io -->
<!DOCTYPE svg PUBLIC "-//W3C//DTD SVG 1.1//EN" "http://www.w3.org/Graphics/SVG/1.1/DTD/svg11.dtd">
<svg version="1.1" xmlns="http://www.w3.org/2000/svg" xmlns:xlink="http://www.w3.org/1999/xlink" width="14" height="14" viewBox="0 0 14 14">
<path fill="#444444" d="M7 0q1.422 0 2.719 0.555t2.234 1.492 1.492 2.234 0.555 2.719-0.555 2.719-1.492 2.234-2.234 1.492-2.719 0.555-2.719-0.555-2.234-1.492-1.492-2.234-0.555-2.719 0.555-2.719 1.492-2.234 2.234-1.492 2.719-0.555zM7 1q-1.484 0-2.82 0.703l1.516 1.516q0.641-0.219 1.305-0.219t1.305 0.219l1.516-1.516q-1.336-0.703-2.82-0.703zM1.703 9.82l1.516-1.516q-0.219-0.641-0.219-1.305t0.219-1.305l-1.516-1.516q-0.703 1.336-0.703 2.82t0.703 2.82zM7 13q1.484 0 2.82-0.703l-1.516-1.516q-0.641 0.219-1.305 0.219t-1.305-0.219l-1.516 1.516q1.336 0.703 2.82 0.703zM7 10q1.242 0 2.121-0.879t0.879-2.121-0.879-2.121-2.121-0.879-2.121 0.879-0.879 2.121 0.879 2.121 2.121 0.879zM10.781 8.305l1.516 1.516q0.703-1.336 0.703-2.82t-0.703-2.82l-1.516 1.516q0.219 0.641 0.219 1.305t-0.219 1.305z"></path>
</svg>

<svg xmlns="http://www.w3.org/2000/svg" viewBox="0 0 14 14"><path d="M7 0q1.422 0 2.72.555t2.233 1.492 1.492 2.234T14 7t-.555 2.72-1.492 2.233-2.234 1.492T7 14t-2.72-.555-2.233-1.492T.555 9.72 0 7t.555-2.72 1.492-2.233T4.28.555 7 0zm0 1q-1.484 0-2.82.703L5.696 3.22Q6.336 3 7 3t1.306.22l1.516-1.517Q8.486 1 7.002 1zM1.703 9.82L3.22 8.304Q3 7.664 3 7t.22-1.306L1.702 4.178Q1 5.514 1 6.998t.703 2.82zM7 13q1.484 0 2.82-.703L8.304 10.78Q7.664 11 7 11t-1.306-.22l-1.516 1.517Q5.514 13 6.998 13zm0-3q1.242 0 2.12-.88T10 7t-.88-2.12T7 4t-2.12.88T4 7t.88 2.12T7 10zm3.78-1.695l1.517 1.516Q13 8.486 13 7t-.703-2.82L10.78 5.698q.22.64.22 1.305t-.22 1.305z" /></svg>
